packages/components/src/components/icon/common/ic-identity-document-verification-default.svg

<svg width="20" height="20" viewBox="0 0 20 20" fill="none" xmlns="http://www.w3.org/2000/svg">
<path fill-rule="evenodd" clip-rule="evenodd" d="M2.5 7C1.67157 7 1 7.67157 1 8.5V15.5C1 16.3284 1.67157 17 2.5 17H13.5C14.3284 17 15 16.3284 15 15.5V8.5C15 7.67157 14.3284 7 13.5 7H2.5ZM0 8.5C0 7.11929 1.11929 6 2.5 6H13.5C14.8807 6 16 7.11929 16 8.5V15.5C16 16.8807 14.8807 18 13.5 18H2.5C1.11929 18 0 16.8807 0 15.5V8.5Z" fill="var(--fill-color1)"/>
<path d="M9 10.5C9 10.2239 9.22386 10 9.5 10H13.5C13.7761 10 14 10.2239 14 10.5C14 10.7761 13.7761 11 13.5 11H9.5C9.22386 11 9 10.7761 9 10.5Z" fill="var(--fill-color1)"/>
<path d="M9 12C9 11.7239 9.22386 11.5 9.5 11.5H12.5C12.7761 11.5 13 11.7239 13 12C13 12.2761 12.7761 12.5 12.5 12.5H9.5C9.22386 12.5 9 12.2761 9 12Z" fill="var(--fill-color1)"/>
<path d="M9 13.5C9 13.2239 9.22386 13 9.5 13H12.5C12.7761 13 13 13.2239 13 13.5C13 13.7761 12.7761 14 12.5 14H9.5C9.22386 14 9 13.7761 9 13.5Z" fill="var(--fill-color1)"/>
<path fill-rule="evenodd" clip-rule="evenodd" d="M3 11C3 9.89543 3.89543 9 5 9C6.10457 9 7 9.89543 7 11C7 11.5324 6.79197 12.0162 6.45276 12.3746C7.37545 12.8862 8 13.8702 8 15H2C2 13.8702 2.62455 12.8862 3.54724 12.3746C3.20803 12.0162 3 11.5324 3 11ZM5.00001 12C5.5523 12 6.00001 11.5523 6.00001 11C6.00001 10.4477 5.5523 10 5.00001 10C4.44773 10 4.00001 10.4477 4.00001 11C4.00001 11.5523 4.44773 12 5.00001 12ZM3.26758 14C3.61339 13.4022 4.25973 13 5.00001 13C5.7403 13 6.38664 13.4022 6.73245 14H3.26758Z" fill="var(--fill-color1)"/>
</svg>

<svg xmlns="http://www.w3.org/2000/svg" width="20" height="20" fill="none"><path fill="var(--fill-color1)" fill-rule="evenodd" d="M2.5 7A1.5 1.5 0 0 0 1 8.5v7A1.5 1.5 0 0 0 2.5 17h11a1.5 1.5 0 0 0 1.5-1.5v-7A1.5 1.5 0 0 0 13.5 7h-11ZM0 8.5A2.5 2.5 0 0 1 2.5 6h11A2.5 2.5 0 0 1 16 8.5v7a2.5 2.5 0 0 1-2.5 2.5h-11A2.5 2.5 0 0 1 0 15.5v-7Z" clip-rule="evenodd"/><path fill="var(--fill-color1)" d="M9 10.5a.5.5 0 0 1 .5-.5h4a.5.5 0 0 1 0 1h-4a.5.5 0 0 1-.5-.5ZM9 12a.5.5 0 0 1 .5-.5h3a.5.5 0 0 1 0 1h-3A.5.5 0 0 1 9 12ZM9 13.5a.5.5 0 0 1 .5-.5h3a.5.5 0 0 1 0 1h-3a.5.5 0 0 1-.5-.5Z"/><path fill="var(--fill-color1)" fill-rule="evenodd" d="M3 11a2 2 0 1 1 3.453 1.375A3 3 0 0 1 8 15H2a3 3 0 0 1 1.547-2.625A1.993 1.993 0 0 1 3 11Zm2 1a1 1 0 1 0 0-2 1 1 0 0 0 0 2Zm-1.732 2a2 2 0 0 1 3.464 0H3.268Z" clip-rule="evenodd"/></svg>
